symbolic/places/network-workgroup-symbolic.svg

<?xml version="1.0" encoding="UTF-8" standalone="no"?>
<!-- Created with Inkscape (http://www.inkscape.org/) -->

<svg
   xmlns:dc="http://purl.org/dc/elements/1.1/"
   xmlns:cc="http://creativecommons.org/ns#"
   xmlns:rdf="http://www.w3.org/1999/02/22-rdf-syntax-ns#"
   xmlns:svg="http://www.w3.org/2000/svg"
   xmlns="http://www.w3.org/2000/svg"
   xmlns:sodipodi="http://sodipodi.sourceforge.net/DTD/sodipodi-0.dtd"
   xmlns:inkscape="http://www.inkscape.org/namespaces/inkscape"
   width="16"
   height="16"
   id="svg4159"
   version="1.1"
   inkscape:version="0.92.4 5da689c313, 2019-01-14"
   viewBox="0 0 16 16"
   sodipodi:docname="network-workgroup-symbolic.svg">
  <title
     id="title815">Boston Icons</title>
  <defs
     id="defs4161">
    <inkscape:perspective
       sodipodi:type="inkscape:persp3d"
       inkscape:vp_x="0 : 8 : 1"
       inkscape:vp_y="0 : 1000 : 0"
       inkscape:vp_z="16 : 8 : 1"
       inkscape:persp3d-origin="8 : 5.3333333 : 1"
       id="perspective4709" />
  </defs>
  <sodipodi:namedview
     id="base"
     pagecolor="#ffffff"
     bordercolor="#00fff6"
     borderopacity="1"
     inkscape:pageopacity="0"
     inkscape:pageshadow="2"
     inkscape:zoom="22.197802"
     inkscape:cx="7.5704561"
     inkscape:cy="9.7154235"
     inkscape:current-layer="layer1"
     showgrid="false"
     inkscape:grid-bbox="true"
     inkscape:document-units="px"
     inkscape:window-width="1920"
     inkscape:window-height="1016"
     inkscape:window-x="0"
     inkscape:window-y="27"
     inkscape:window-maximized="1"
     showguides="true"
     inkscape:guide-bbox="true">
    <inkscape:grid
       type="xygrid"
       id="grid4707" />
  </sodipodi:namedview>
  <metadata
     id="metadata4164">
    <rdf:RDF>
      <cc:Work
         rdf:about="">
        <dc:format>image/svg+xml</dc:format>
        <dc:type
           rdf:resource="http://purl.org/dc/dcmitype/StillImage" />
        <dc:title>Boston Icons</dc:title>
        <cc:license
           rdf:resource="https://dribbble.com/chrisdiaz" />
        <dc:creator>
          <cc:Agent>
            <dc:title>Christian Díaz</dc:title>
          </cc:Agent>
        </dc:creator>
        <dc:description>diazchris.deviantart.com | dribbble.com/chrisdiaz</dc:description>
        <dc:date>2019</dc:date>
        <dc:publisher>
          <cc:Agent>
            <dc:title>Christian Díaz</dc:title>
          </cc:Agent>
        </dc:publisher>
        <dc:identifier>christiandiaz.design [at] gmail [dot] com</dc:identifier>
        <dc:subject>
          <rdf:Bag>
            <rdf:li>GNOME icon Theme</rdf:li>
          </rdf:Bag>
        </dc:subject>
      </cc:Work>
    </rdf:RDF>
  </metadata>
  <g
     id="layer1"
     inkscape:label="Layer 1"
     inkscape:groupmode="layer">
    <path
       style="opacity:1;fill:#252627;fill-opacity:1;fill-rule:nonzero;stroke:none;stroke-width:0.5;stroke-linecap:square;stroke-linejoin:miter;stroke-miterlimit:4;stroke-dasharray:none;stroke-dashoffset:0;stroke-opacity:1"
       d="M 0,0 V 2 9 H 2 3 V 7 H 2 V 2 h 8 v 1 h 2 V 2 0 Z m 4,4 v 9 h 2 8 2 V 6 4 H 6 Z m 2,2 h 8 v 5 H 6 Z m 1,8 v 2 h 6 v -2 z"
       id="rect4136"
       inkscape:connector-curvature="0" />
  </g>
</svg>

<?xml version="1.0" encoding="UTF-8" standalone="no"?>
<!-- Created with Inkscape (http://www.inkscape.org/) -->

<svg
   xmlns:dc="http://purl.org/dc/elements/1.1/"
   xmlns:cc="http://creativecommons.org/ns#"
   xmlns:rdf="http://www.w3.org/1999/02/22-rdf-syntax-ns#"
   xmlns:svg="http://www.w3.org/2000/svg"
   xmlns="http://www.w3.org/2000/svg"
   xmlns:sodipodi="http://sodipodi.sourceforge.net/DTD/sodipodi-0.dtd"
   xmlns:inkscape="http://www.inkscape.org/namespaces/inkscape"
   width="16"
   height="16"
   id="svg4159"
   version="1.1"
   inkscape:version="0.92.4 5da689c313, 2019-01-14"
   viewBox="0 0 16 16"
   sodipodi:docname="network-workgroup-symbolic.svg">
  <title
     id="title815">Boston Icons</title>
  <defs
     id="defs4161">
    <inkscape:perspective
       sodipodi:type="inkscape:persp3d"
       inkscape:vp_x="0 : 8 : 1"
       inkscape:vp_y="0 : 1000 : 0"
       inkscape:vp_z="16 : 8 : 1"
       inkscape:persp3d-origin="8 : 5.3333333 : 1"
       id="perspective4709" />
  </defs>
  <sodipodi:namedview
     id="base"
     pagecolor="#ffffff"
     bordercolor="#00fff6"
     borderopacity="1"
     inkscape:pageopacity="0"
     inkscape:pageshadow="2"
     inkscape:zoom="22.197802"
     inkscape:cx="-0.9889499"
     inkscape:cy="9.5352255"
     inkscape:current-layer="layer1"
     showgrid="false"
     inkscape:grid-bbox="true"
     inkscape:document-units="px"
     inkscape:window-width="1920"
     inkscape:window-height="1016"
     inkscape:window-x="0"
     inkscape:window-y="27"
     inkscape:window-maximized="1"
     showguides="true"
     inkscape:guide-bbox="true">
    <inkscape:grid
       type="xygrid"
       id="grid4707" />
  </sodipodi:namedview>
  <metadata
     id="metadata4164">
    <rdf:RDF>
      <cc:Work
         rdf:about="">
        <dc:format>image/svg+xml</dc:format>
        <dc:type
           rdf:resource="http://purl.org/dc/dcmitype/StillImage" />
        <dc:title>Boston Icons</dc:title>
        <cc:license
           rdf:resource="https://dribbble.com/chrisdiaz" />
        <dc:creator>
          <cc:Agent>
            <dc:title>Christian Díaz</dc:title>
          </cc:Agent>
        </dc:creator>
        <dc:description>diazchris.deviantart.com | dribbble.com/chrisdiaz</dc:description>
        <dc:date>2019</dc:date>
        <dc:publisher>
          <cc:Agent>
            <dc:title>Christian Díaz</dc:title>
          </cc:Agent>
        </dc:publisher>
        <dc:identifier>christiandiaz.design [at] gmail [dot] com</dc:identifier>
        <dc:subject>
          <rdf:Bag>
            <rdf:li>GNOME icon Theme</rdf:li>
          </rdf:Bag>
        </dc:subject>
      </cc:Work>
    </rdf:RDF>
  </metadata>
  <g
     id="layer1"
     inkscape:label="Layer 1"
     inkscape:groupmode="layer">
    <path
       style="opacity:1;fill:#1a1a1a;fill-opacity:1;fill-rule:nonzero;stroke:none;stroke-width:0.5;stroke-linecap:square;stroke-linejoin:miter;stroke-miterlimit:4;stroke-dasharray:none;stroke-dashoffset:0;stroke-opacity:1"
       d="M 0 0 L 0 2 L 0 9 L 2 9 L 3 9 L 3 7 L 2 7 L 2 2 L 10 2 L 10 3 L 12 3 L 12 2 L 12 0 L 0 0 z M 4 4 L 4 13 L 6 13 L 14 13 L 16 13 L 16 6 L 16 4 L 6 4 L 4 4 z M 6 6 L 14 6 L 14 11 L 6 11 L 6 6 z M 7 14 L 7 16 L 13 16 L 13 14 L 7 14 z "
       id="rect4136" />
  </g>
</svg>
